X:1
T:Title
%%score { ( 1 3 ) | 2 }
L:1/8
M:4/4
K:Bb
V:1 treble nm="Grand Piano"
V:3 treble 
V:2 bass 
V:1
 z4 z2 z[Q:1/4=100] [DF] | [DF]2 [B,D][CE] [DF] [Fd]2 [Fc] | [GB]2 GB F3 [DF] | F2 ED E A2 G | %4
 F2 [A,C][A,C] [B,D]3 [DF] | [DF]2 [B,D][CE] [DF] [Fd]2 [Fc] | [GB]2 GB F3 [DF] | %7
 F2 CF A c2 [DFB] | [CFA]2 [B,=EG][B,EG] [A,CF]4 | [Fd]4 [DB]4 | c B2 G [DF]4 | [CF]4 z4 | %12
 c B2 [Gc] [^Fd]4 | [Fd]4 [DB]4 | c B2 G [DF]4 | [DF][DB][FB]c d d2 [Ge] |[M:7/8] dcB A [DB]3 |] %17
V:2
 z4 z2 z [B,,B,] | [B,,B,]2 [B,,F,][B,,F,] [B,,B,] [B,,B,]2 [D,B,] | %2
 [E,B,]2 [E,B,E][G,B,E] [B,D]3 [B,,B,] | [F,A,C]2 [F,C][F,=B,] [F,C] [F,CE]2 [F,_B,E] | %4
 [F,A,C]2 [F,,F,][F,,F,] [B,,F,]3 [B,,B,] | [B,,B,]2 [B,,F,][B,,F,] [B,,B,] [B,,B,]2 [D,B,] | %6
 [E,B,]2 [E,B,E][G,B,E] [B,D]3 [B,,B,] | [F,A,C]2 [F,A,][F,A,C] [F,CF] [F,A,F]2 B,, | %8
 C,2 C,C, F,4 | [B,,B,]2 [B,,B,]2 [B,,F,]4 | [E,G,E] [E,G,E]2 [E,B,E] [B,,B,]4 | %11
 [F,A,]2 F,F, [F,A,E]4 | [G,B,D] [G,B,D]2 [E,G,] [D,A,]4 | [B,,B,]2 [B,,B,]2 [B,,F,]4 | %14
 [E,G,E] [E,G,E]2 [E,B,E] [B,,B,]4 | %15
 [B,,B,][B,,B,][D,B,][K:treble][F,A,F] [B,F] [B,F]2[K:bass] [E,B,] | %16
[M:7/8] [F,B,F][F,E][F,D] [F,C] [B,,F,]3 |] %17
V:3
 x8 | x8 | x8 | x8 | x8 | x8 | x8 | x8 | x8 | x8 | x8 | z2 A,A, c4 | x8 | x8 | x8 | x8 | %16
[M:7/8] x7 |] %17

